!!!COM: Haydn, Franz Joseph
!!!OPR: London Symphonies
!!!OTL: Symphony no. 94 in G major
!!!SCT: Hob. I:94
!!!OMV: 3
!!!OMD: Menuetto.  Allegro molto
!!!ODT: 1791///
!!!MPD: 1792/02/17/
!!!ONB: Basses also play cello part (but not always)
!!!ONB: Cor in G was presumed to be sounding up from transposed part
**kern	**kern	**kern	**kern	**kern	**kern	**kern	**kern	**kern	**kern	**kern	**kern	**kern	**kern	**kern
*	*	*	*	*	*	*	*ITrd-4c-7	*ITrd-4c-7	*	*	*	*	*	*
*Icello	*Iviola	*Ivioln	*Ivioln	*Itimpa	*Itromp	*Itromp	*Icor	*Icor	*Ifagot	*Ifagot	*Ioboe	*Ioboe	*Iflt	*Iflt
*I"Violoncello	*I"Viola	*I"Violino II	*I"Violino I	*I"Timpani	*I"Tromba 2	*I"Tromba 1	*I"Corno 2 in G	*I"Corno 1 in G	*I"Fagotto 2	*I"Fagotto 1	*I"Oboe 2	*I"Oboe 1	*I"Flauto 2	*I"Flauto 1
*	*	*I#2	*I#1	*	*I#2	*I#1	*I#2	*I#1	*I#2	*I#1	*I#2	*I#1	*I#2	*I#1
*>[A,A,B,B,C,C,D,D,A,B]	*>[A,A,B,B,C,C,D,D,A,B]	*>[A,A,B,B,C,C,D,D,A,B]	*>[A,A,B,B,C,C,D,D,A,B]	*>[A,A,B,B,C,C,D,D,A,B]	*>[A,A,B,B,C,C,D,D,A,B]	*>[A,A,B,B,C,C,D,D,A,B]	*>[A,A,B,B,C,C,D,D,A,B]	*>[A,A,B,B,C,C,D,D,A,B]	*>[A,A,B,B,C,C,D,D,A,B]	*>[A,A,B,B,C,C,D,D,A,B]	*>[A,A,B,B,C,C,D,D,A,B]	*>[A,A,B,B,C,C,D,D,A,B]	*>[A,A,B,B,C,C,D,D,A,B]	*>[A,A,B,B,C,C,D,D,A,B]
*>norep[A,B,C,D,A,B]	*>norep[A,B,C,D,A,B]	*>norep[A,B,C,D,A,B]	*>norep[A,B,C,D,A,B]	*>norep[A,B,C,D,A,B]	*>norep[A,B,C,D,A,B]	*>norep[A,B,C,D,A,B]	*>norep[A,B,C,D,A,B]	*>norep[A,B,C,D,A,B]	*>norep[A,B,C,D,A,B]	*>norep[A,B,C,D,A,B]	*>norep[A,B,C,D,A,B]	*>norep[A,B,C,D,A,B]	*>norep[A,B,C,D,A,B]	*>norep[A,B,C,D,A,B]
*staff10	*staff9	*staff8	*staff7	*staff6	*staff5	*staff5	*staff4	*staff4	*staff3	*staff3	*staff2	*staff2	*staff1	*staff1
*clefF4	*clefC3	*clefG2	*clefG2	*clefF4	*clefG2	*clefG2	*clefG2	*clefG2	*clefF4	*clefF4	*clefG2	*clefG2	*clefG2	*clefG2
*k[f#]	*k[f#]	*k[f#]	*k[f#]	*k[f#]	*k[f#]	*k[f#]	*k[f#]	*k[f#]	*k[f#]	*k[f#]	*k[f#]	*k[f#]	*k[f#]	*k[f#]
*G:	*G:	*G:	*G:	*G:	*G:	*G:	*D:	*D:	*G:	*G:	*G:	*G:	*G:	*G:
*M3/4	*M3/4	*M3/4	*M3/4	*M3/4	*M3/4	*M3/4	*M3/4	*M3/4	*M3/4	*M3/4	*M3/4	*M3/4	*M3/4	*M3/4
*>A	*>A	*>A	*>A	*>A	*>A	*>A	*>A	*>A	*>A	*>A	*>A	*>A	*>A	*>A
*MM228	*MM228	*MM228	*MM228	*MM228	*MM228	*MM228	*MM228	*MM228	*MM228	*MM228	*MM228	*MM228	*MM228	*MM228
4r	4r	4r	8g	4r	4r	4r	4r	4r	8G	8G	4r	4r	8g	8g
.	.	.	8a	.	.	.	.	.	8A	8A	.	.	8a	8a
=1	=1	=1	=1	=1	=1	=1	=1	=1	=1	=1	=1	=1	=1	=1
4G	4r	4r	4b	4GG	4g	4g	4ryy	4r	4B	4B	4ryy	4r	4b	4b
4r	4G	4B 4d	4g	4r	4ryy	4r	4b	4gg	4G	4G	4g	4b	4g	4g
4r	4G	4B 4d	4dd'	4r	4ryy	4r	4b	4gg	4d'	4d'	4g	4b	4dd'	4dd'
=2	=2	=2	=2	=2	=2	=2	=2	=2	=2	=2	=2	=2	=2	=2
4G	4r	4r	4b	4GG	4g	4g	4ryy	4r	4B	4B	4ryy	4r	4b	4b
4r	4G	4B 4d	4g	4r	4ryy	4r	4b	4gg	4G	4G	4g	4b	4g	4g
4r	4G	4B 4d	4gg'	4r	4ryy	4r	4b	4gg	4g'	4g'	4g	4b	4gg'	4gg'
=3	=3	=3	=3	=3	=3	=3	=3	=3	=3	=3	=3	=3	=3	=3
4D	4r	4r	4ff#	4D	4dd	4dd	4ryy	4r	4f#	4f#	4ryy	4r	4ff#	4ff#
4F#	4F# 4A	4c 4d	4dd	4r	4dd	4dd	4dd	4aa	4d	4d	4a	4cc	4dd	4dd
4A	4F# 4A	4c 4d	4cc'	4r	4dd	4dd	4dd	4aa	4c'	4c'	4a	4cc	4cc'	4cc'
=4	=4	=4	=4	=4	=4	=4	=4	=4	=4	=4	=4	=4	=4	=4
4D	4F# 4A	4c 4d	4d 4cc 4aa	4D	4dd	4dd	4dd	4aa	4A	4A	4a	4cc	4aa	4aa
4r	4r	4r	4r	4r	4ryy	4r	4ryy	4r	4r	4r	4ryy	4r	4r	4r
4r	4r	4r	8d	4r	4ryy	4r	4ryy	4r	8D	8D	4ryy	4r	8d	8d
.	.	.	8e	.	.	.	.	.	8E	8E	.	.	8e	8e
=5	=5	=5	=5	=5	=5	=5	=5	=5	=5	=5	=5	=5	=5	=5
4D	4r	4r	4f#	4D	4dd	4dd	4ryy	4r	4F#	4F#	4ryy	4r	4f#	4f#
4r	4F# 4A	4c 4d	4d	4r	4ryy	4r	4dd	4aa	4D	4D	4f#	4a	4d	4d
4r	4F# 4A	4c 4d	4a'	4r	4ryy	4r	4dd	4aa	4A'	4A'	4f#	4a	4a'	4a'
=6	=6	=6	=6	=6	=6	=6	=6	=6	=6	=6	=6	=6	=6	=6
4D	4r	4r	4f#	4D	4dd	4dd	4ryy	4r	4F#	4F#	4ryy	4r	4f#	4f#
4r	4F# 4A	4A 4f#	4d	4r	4ryy	4r	4dd	4aa	4D	4D	4f#	4a	4d	4d
4r	4F# 4A	4A 4f#	4cc'	4r	4ryy	4r	4dd	4aa	4c'	4c'	4f#	4a	4cc'	4cc'
=7	=7	=7	=7	=7	=7	=7	=7	=7	=7	=7	=7	=7	=7	=7
4G	4r	4r	4b	4GG	4g	4dd	4ryy	4r	4B	4B	4ryy	4r	4b	4b
4D	4G	4B 4g	4g	4r	4g	4dd	4gg	4bb	4G	4G	4g	4b	4g	4g
4BB	4G	4B 4g	4g'	4r	4g	4dd	4gg	4bb	4F#'	4F#'	4g	4b	4g'	4g'
=8	=8	=8	=8	=8	=8	=8	=8	=8	=8	=8	=8	=8	=8	=8
4GG	4G	4B 4g	4d 4b 4gg	4GG	4g	4dd	4gg	4bb	4GG	4GG	4g	4b	4gg	4gg
4r	4r	4r	4r	4r	4ryy	4r	4ryy	4r	4r	4r	4ryy	4r	4r	4r
4r	4r	4r	8g	4r	4ryy	4r	4ryy	4r	4r	4r	4ryy	4r	4r	8gg
.	.	.	8a	.	.	.	.	.	.	.	.	.	.	8aa
=9	=9	=9	=9	=9	=9	=9	=9	=9	=9	=9	=9	=9	=9	=9
.	.	.	8ccq	.	.	.	.	.	.	.	.	.	.	8cccq
[2.G	4d	2.fn	4b	2.r	2.r	2.r	2.r	2.r	2.r	4d	2.r	2.r	2.r	4bb
.	4c	.	4a	.	.	.	.	.	.	4c	.	.	.	4aa
.	4d	.	4b	.	.	.	.	.	.	4d	.	.	.	4bb
=10	=10	=10	=10	=10	=10	=10	=10	=10	=10	=10	=10	=10	=10	=10
.	.	8fnq	.	.	.	.	.	.	.	.	.	.	.	.
2.G_	4g	4e	2.cc	2.r	2.r	2.r	2.r	2.r	2.r	4e	2.r	2.r	2.r	2.ccc
.	4fn	4d	.	.	.	.	.	.	.	4r	.	.	.	.
.	4e	4c	.	.	.	.	.	.	.	4r	.	.	.	.
=11	=11	=11	=11	=11	=11	=11	=11	=11	=11	=11	=11	=11	=11	=11
.	.	.	8eeq	.	.	.	.	.	.	.	.	.	.	8eeeq
2.G]	4d	2.B	4dd	2.r	2.r	2.r	2.r	2.r	2.r	4fn	2.r	2.r	2.r	4ddd
.	4e	.	4cc	.	.	.	.	.	.	4e	.	.	.	4ccc
.	4fn	.	4dd	.	.	.	.	.	.	4d	.	.	.	4ddd
=12	=12	=12	=12	=12	=12	=12	=12	=12	=12	=12	=12	=12	=12	=12
4C	4g	4c	2.ee	2.r	2.r	2.r	2.r	2.r	2.r	4c	2.r	2.r	2.r	2.eee
4BB	4B	4r	.	.	.	.	.	.	.	4r	.	.	.	.
4C	4c	4r	.	.	.	.	.	.	.	4r	.	.	.	.
=13	=13	=13	=13	=13	=13	=13	=13	=13	=13	=13	=13	=13	=13	=13
.	.	.	8ddq	.	.	.	.	.	.	.	8ddq	8ff#q	8dddq	8dddq
2.A	2.e	2.g	4cc#	2.r	2.r	2.r	4aa	4aa	2.e	2.e	4cc#	4ee	4ccc#	4ccc#
.	.	.	4b	.	.	.	4aa	4aa	.	.	4b	4dd	4bb	4bb
.	.	.	4cc#	.	.	.	4aa	4aa	.	.	4cc#	4ee	4ccc#	4ccc#
=14	=14	=14	=14	=14	=14	=14	=14	=14	=14	=14	=14	=14	=14	=14
.	.	8gq	.	.	.	.	.	.	.	.	.	8gg#q	.	.
4D	4a	4f#X	2.dd	4D	4dd	4dd	2.dd	2.aa	4d	4d	2.dd	4ff#	2.ddd	2.ddd
4C#	4c#	4e	.	4r	4ryy	4r	.	.	4c#	4c#	.	4ee	.	.
4D	4d	4f#	.	4r	4ryy	4r	.	.	4d	4d	.	4ff#	.	.
=15	=15	=15	=15	=15	=15	=15	=15	=15	=15	=15	=15	=15	=15	=15
.	.	.	8ddq	.	.	.	.	.	.	.	.	8ddq	8ff#q	8ff#q
2.G	4e	2.g	4cc#	2.r	2.r	2.r	4aa	4aa	2.A	2.A	2.g	4cc#	4ee	4ee
.	4d	.	4b	.	.	.	4aa	4aa	.	.	.	4b	4dd	4dd
.	4e	.	4cc#	.	.	.	4aa	4aa	.	.	.	4cc#	4ee	4ee
=16	=16	=16	=16	=16	=16	=16	=16	=16	=16	=16	=16	=16	=16	=16
4F#	4f#	8f#	8dd	4D	2.dd	2.dd	2.dd	2.aa	4F#	4F#	8f#	8dd	8dd	8dd
.	.	8g	8ee	.	.	.	.	.	.	.	8g	8ee	8ee	8ee
4D	4d	8a	8ff#	4r	.	.	.	.	4D	4D	8a	8ff#	8ff#	8ff#
.	.	8b	8gg	.	.	.	.	.	.	.	8b	8gg	8gg	8gg
4D	4d	8cc#	8aa	4r	.	.	.	.	4D	4D	8cc#	8aa	8aa	8aa
.	.	8dd	8bb	.	.	.	.	.	.	.	8dd	8bb	8bb	8bb
=17	=17	=17	=17	=17	=17	=17	=17	=17	=17	=17	=17	=17	=17	=17
4AA	2A	4ee	4ccc#	2.r	4ee	4ee	4aa	4aa	4AA	4AA	4ee	4ccc#	4ccc#	4ccc#
4AA	.	8gg	8eee	.	4ee	4ee	4aa	4aa	4AA	4AA	4gg	4ccc#	8eee	8eee
.	.	8ee	8ccc#	.	.	.	.	.	.	.	.	.	8ccc#	8ccc#
4AA	4G	4cc#	4aa	.	4ee	4ee	4aa	4aa	4AA	4AA	4ee	4ccc#	4aa	4aa
=18	=18	=18	=18	=18	=18	=18	=18	=18	=18	=18	=18	=18	=18	=18
4D	4F#	4dd	4ddd	4D	4dd	4dd	4dd	4aa	4D	4D	4dd	4ddd	4ddd	4ddd
4r	4r	4r	4r	4r	4ryy	4r	4ryy	4r	4r	4r	4ryy	4r	4r	4r
=:||:	=:||:	=:||:	=:||:	=:||:	=:||:	=:||:	=:||:	=:||:	=:||:	=:||:	=:||:	=:||:	=:||:	=:||:
*>B	*>B	*>B	*>B	*>B	*>B	*>B	*>B	*>B	*>B	*>B	*>B	*>B	*>B	*>B
4r	4r	8f#	8f#	4r	4r	4r	4r	4r	4r	4r	4r	4r	4r	4r
.	.	8e	8e	.	.	.	.	.	.	.	.	.	.	.
=19	=19	=19	=19	=19	=19	=19	=19	=19	=19	=19	=19	=19	=19	=19
4r	4r	8d	8d	2.r	2.r	2.r	2.r	2.r	4r	4r	2.r	2.r	2.r	2.r
.	.	8e	8e	.	.	.	.	.	.	.	.	.	.	.
4r	4r	8f#	8f#	.	.	.	.	.	4r	4r	.	.	.	.
.	.	8g	8g	.	.	.	.	.	.	.	.	.	.	.
8Cn	8cn	8a	8a	.	.	.	.	.	8C	8C	.	.	.	.
8BB	8B	8b	8b	.	.	.	.	.	8BB	8BB	.	.	.	.
=20	=20	=20	=20	=20	=20	=20	=20	=20	=20	=20	=20	=20	=20	=20
8AA	8A	4ccn	4ccn	2.r	2.r	2.r	2.r	2.r	8AA	8AA	2.r	2.r	2.r	2.r
8BB	8B	.	.	.	.	.	.	.	8BB	8BB	.	.	.	.
8C	8c	8ee	8ee	.	.	.	.	.	8C	8C	.	.	.	.
8D	8d	8cc	8cc	.	.	.	.	.	8D	8D	.	.	.	.
8E	8e	4a	4a	.	.	.	.	.	8E	8E	.	.	.	.
8F#	8f#	.	.	.	.	.	.	.	8F#	8F#	.	.	.	.
=21	=21	=21	=21	=21	=21	=21	=21	=21	=21	=21	=21	=21	=21	=21
4G	4g	4b	4b	2.r	2.r	2.r	2.r	2.r	4G	4G	2.r	2.r	2.r	2.r
8B	8b	4g	4g	.	.	.	.	.	8B	8B	.	.	.	.
8G	8g	.	.	.	.	.	.	.	8G	8G	.	.	.	.
4E	4e	4cc#	4cc#	.	.	.	.	.	4E	4E	.	.	.	.
=22	=22	=22	=22	=22	=22	=22	=22	=22	=22	=22	=22	=22	=22	=22
4F#	4f#	4dd	8dd	2.r	2.r	2.r	2.r	2.r	4F#	4F#	2.r	2.r	2.r	2.r
.	.	.	8ee	.	.	.	.	.	.	.	.	.	.	.
4D	4d	4r	8ff#	.	.	.	.	.	4D	4D	.	.	.	.
.	.	.	8gg	.	.	.	.	.	.	.	.	.	.	.
4r	4r	8cn	8aa	.	.	.	.	.	4r	4r	.	.	.	.
.	.	8B	8bb	.	.	.	.	.	.	.	.	.	.	.
=23	=23	=23	=23	=23	=23	=23	=23	=23	=23	=23	=23	=23	=23	=23
2.r	2.r	8A	4cccn	2.r	2.r	2.r	2.r	2.r	2.r	2.r	2.r	2.r	2.r	2.r
.	.	8B	.	.	.	.	.	.	.	.	.	.	.	.
.	.	8c	8eee	.	.	.	.	.	.	.	.	.	.	.
.	.	8d	8ccc	.	.	.	.	.	.	.	.	.	.	.
.	.	8e	4aa	.	.	.	.	.	.	.	.	.	.	.
.	.	8f#	.	.	.	.	.	.	.	.	.	.	.	.
=24	=24	=24	=24	=24	=24	=24	=24	=24	=24	=24	=24	=24	=24	=24
2.r	2.r	4g	4bb	2.r	2.r	2.r	2.r	2.r	2.r	2.r	2.r	2.r	2.r	2.r
.	.	8b	4gg	.	.	.	.	.	.	.	.	.	.	.
.	.	8g	.	.	.	.	.	.	.	.	.	.	.	.
.	.	4e	4ccc	.	.	.	.	.	.	.	.	.	.	.
=25	=25	=25	=25	=25	=25	=25	=25	=25	=25	=25	=25	=25	=25	=25
2.r	2.r	4f#	4aa	2.r	2.r	2.r	2.r	2.r	2.r	2.r	2.r	2.r	2.r	2.r
.	.	8a	4ff#	.	.	.	.	.	.	.	.	.	.	.
.	.	8f#	.	.	.	.	.	.	.	.	.	.	.	.
.	.	4d#	4bb	.	.	.	.	.	.	.	.	.	.	.
=26	=26	=26	=26	=26	=26	=26	=26	=26	=26	=26	=26	=26	=26	=26
2.r	2.r	4e	4gg	2.r	2.r	2.r	2.r	2.r	2.r	2.r	2.r	2.r	2.r	2.r
.	.	8g	4ee	.	.	.	.	.	.	.	.	.	.	.
.	.	8e	.	.	.	.	.	.	.	.	.	.	.	.
.	.	4c#	4aa'	.	.	.	.	.	.	.	.	.	.	.
=27	=27	=27	=27	=27	=27	=27	=27	=27	=27	=27	=27	=27	=27	=27
2.r	2.r	2d	4ff#	2.r	2.r	2.r	2.r	2.r	2.r	2.r	2.r	2.r	2.r	2.r
.	.	.	4dd	.	.	.	.	.	.	.	.	.	.	.
.	.	4r	8a	.	.	.	.	.	.	.	.	.	.	.
.	.	.	8b-	.	.	.	.	.	.	.	.	.	.	.
=28	=28	=28	=28	=28	=28	=28	=28	=28	=28	=28	=28	=28	=28	=28
4D	4d 4cc	4d 4a 4ff#X	4cc	4D	2.dd	[2.dd	2.dd	2.aa	2.d	2.d	2.cc	2.ff#	2.aa	2.aa
4r	4r	4r	8ee-	4r	.	.	.	.	.	.	.	.	.	.
.	.	.	8cc	.	.	.	.	.	.	.	.	.	.	.
4r	4r	4r	4a	4r	.	.	.	.	.	.	.	.	.	.
=29	=29	=29	=29	=29	=29	=29	=29	=29	=29	=29	=29	=29	=29	=29
4G	4d 4b-	4d 4b- 4gg	4b-	4GG	4g	4dd]	4gg	4gg	2.G	2.G	2.b-	2.gg	2.bb-	2.bb-
4r	4r	4r	8dd	4r	4ryy	4r	4ryy	4r	.	.	.	.	.	.
.	.	.	8b-	.	.	.	.	.	.	.	.	.	.	.
4r	4r	4r	4g	4r	4ryy	4r	4ryy	4r	.	.	.	.	.	.
=30	=30	=30	=30	=30	=30	=30	=30	=30	=30	=30	=30	=30	=30	=30
4BB-	4B- 4a-	4B- 4fn 4dd	4a-	2.r	2.r	2.r	2.r	2.r	2.B-	2.B-	2.a-	2.dd	2.ffn	2.ffn
4r	4r	4r	8cc	.	.	.	.	.	.	.	.	.	.	.
.	.	.	8a-	.	.	.	.	.	.	.	.	.	.	.
4r	4r	4r	4fn	.	.	.	.	.	.	.	.	.	.	.
=31	=31	=31	=31	=31	=31	=31	=31	=31	=31	=31	=31	=31	=31	=31
4E-	4B- 4g	4G 4e- 4ee-X	4g	2.r	2.r	2.r	2.r	2.r	2.E-	2.E-	2.g	2.ee-	2.gg	2.gg
4r	4r	4r	8b-	.	.	.	.	.	.	.	.	.	.	.
.	.	.	8g	.	.	.	.	.	.	.	.	.	.	.
4r	4r	4r	4e-	.	.	.	.	.	.	.	.	.	.	.
=32	=32	=32	=32	=32	=32	=32	=32	=32	=32	=32	=32	=32	=32	=32
4GG	4G 4fn	4G 4fn 4bn	4fn	4GG	2.g	2.dd	2.r	2.r	2.G	2.G	2.ffn	2.b	2.dd	2.dd
4r	4r	4r	8a-	4r	.	.	.	.	.	.	.	.	.	.
.	.	.	8f	.	.	.	.	.	.	.	.	.	.	.
4r	4r	4r	4d	4r	.	.	.	.	.	.	.	.	.	.
=33	=33	=33	=33	=33	=33	=33	=33	=33	=33	=33	=33	=33	=33	=33
4C	4G 4e-	4G 4e- 4cc	4e-	2.r	2.cc	2.cc	2.r	2.r	2.C	2.C	2.ee-	2.cc	2.ee-	2.ee-
4r	4r	4r	8g	.	.	.	.	.	.	.	.	.	.	.
.	.	.	8e-	.	.	.	.	.	.	.	.	.	.	.
4r	4r	4r	4c	.	.	.	.	.	.	.	.	.	.	.
=34	=34	=34	=34	=34	=34	=34	=34	=34	=34	=34	=34	=34	=34	=34
4AA	4G 4en	4A 4g 4cc#	4g	2.r	2.ee	2.ee	2.r	2.r	2.AA	2.AA	2.gg	2.cc#	2.een	2.een
4r	4r	4r	8b-	.	.	.	.	.	.	.	.	.	.	.
.	.	.	8g	.	.	.	.	.	.	.	.	.	.	.
4r	4r	4r	4en	.	.	.	.	.	.	.	.	.	.	.
=35	=35	=35	=35	=35	=35	=35	=35	=35	=35	=35	=35	=35	=35	=35
4D	4An 4f#X	4A 4f#X 4dd	4f#X	4D	4dd	4dd	2.d	[2.dd	4D	4D	4ff#X	4dd	4ff#X	4ff#X
4r	4r	4r	4dd	4r	4ryy	4r	.	.	4r	4r	4ryy	4r	4r	4r
4r	4r	4r	8d	4r	4ryy	4r	.	.	8D	8D	4ryy	4r	4r	4r
.	.	.	8e	.	.	.	.	.	8E	8E	.	.	.	.
=36	=36	=36	=36	=36	=36	=36	=36	=36	=36	=36	=36	=36	=36	=36
4D	4D 4A 4f#	4A 4f# 4dd	4f#	4D	4dd	4dd	2.d	2.dd_	4F#	4F#	4ff#	4dd	2.r	2.r
4r	4r	4r	4dd	4r	4ryy	4r	.	.	4ryy	4r	4ryy	4r	.	.
4r	4r	8d	8f#	4r	4ryy	4r	.	.	8D	8F#	4ryy	4r	.	.
.	.	8e	8g	.	.	.	.	.	8E	8G	.	.	.	.
=37	=37	=37	=37	=37	=37	=37	=37	=37	=37	=37	=37	=37	=37	=37
4D	4D 4A 4f#	4f#	4a	4D	4dd	4dd	2.d	2.dd_	4F#	4A	4ff#	4dd	2.r	2.r
4r	4r	4r	4dd	4r	4ryy	4r	.	.	4ryy	4r	4ryy	4r	.	.
4r	4r	8f#	8a	4r	4ryy	4r	.	.	8F#	8A	4ryy	4r	.	.
.	.	8g	8b	.	.	.	.	.	8G	8B	.	.	.	.
=38	=38	=38	=38	=38	=38	=38	=38	=38	=38	=38	=38	=38	=38	=38
4D	4D 4A 4f#	4a	4cc	4D	4dd	4dd	4d	4dd]	4A	4c	4ff#	4dd	2.r	4r
4r	4r	4r	4r	4r	4ryy	4r	4ryy	4r	4ryy	4r	4r	4r	.	4r
4r	4r	4r	4r	4r	4ryy	4r	4ryy	4r	4ryy	4r	4r	8ff#	.	8aa
.	.	.	.	.	.	.	.	.	.	.	.	8gg	.	8bb
=39	=39	=39	=39	=39	=39	=39	=39	=39	=39	=39	=39	=39	=39	=39
2.r	2.r	2.r	2.r	2.r	2.r	2.r	2.r	2.r	4r	4r	2.r	4aa	2.r	4ccc
.	.	.	.	.	.	.	.	.	4r	4r	.	4r	.	4r
.	.	.	.	.	.	.	.	.	8F#	8F#	.	4r	.	4r
.	.	.	.	.	.	.	.	.	8E	8E	.	.	.	.
=40	=40	=40	=40	=40	=40	=40	=40	=40	=40	=40	=40	=40	=40	=40
2.r	2.r	2.r	4r	2.r	2.r	2.r	2.r	2.r	4D	4D	2.r	2.r	4r	4r
.	.	.	4r	.	.	.	.	.	4r	4r	.	.	4r	4r
.	.	.	8g	.	.	.	.	.	8G	8G	.	.	8g	8g
.	.	.	8a	.	.	.	.	.	8A	8A	.	.	8a	8a
=41	=41	=41	=41	=41	=41	=41	=41	=41	=41	=41	=41	=41	=41	=41
4G	4r	4r	4b	4GG	2.g	[2.dd	4ryy	4r	4B	4B	4ryy	4r	4b	4b
4r	4G	4B 4d	4g	4r	.	.	4b	4gg	4G	4G	4gg	4bb	4g	4g
4r	4G	4B 4d	4dd'	4r	.	.	4b	4gg	4d'	4d'	4gg	4bb	4dd'	4dd'
=42	=42	=42	=42	=42	=42	=42	=42	=42	=42	=42	=42	=42	=42	=42
4G	4r	4r	4b	4GG	2.g	2.dd]	4ryy	4r	4B	4B	4ryy	4r	4b	4b
4r	4G	4B 4d	4g	4r	.	.	4b	4gg	4G	4G	4gg	4bb	4g	4g
4r	4G	4B 4d	4gg'	4r	.	.	4b	4gg	4g'	4g'	4gg	4bb	4gg'	4gg'
=43	=43	=43	=43	=43	=43	=43	=43	=43	=43	=43	=43	=43	=43	=43
4D	4r	4r	4ff#	4D	4dd	4dd	4ryy	4r	4f#	4f#	4ryy	4r	4ff#'	4ff#'
4F#	4F#	4c 4d	4dd	4r	4dd	4dd	4dd	4aa	4d	4d	4aa	4ccc	4ff#'	4ff#'
4A	4F#	4c 4d	4cc'	4r	4dd	4dd	4dd	4aa	4c'	4c'	4aa	4ccc	4ff#'	4ff#'
=44	=44	=44	=44	=44	=44	=44	=44	=44	=44	=44	=44	=44	=44	=44
4D	4F#	4c 4d	4d 4cc 4aa	4D	4dd	4dd	4dd	4aa	4A	4A	4aa	4ccc	4ff#'	4ff#'
4r	4r	4r	4r	4r	4ryy	4r	4ryy	4r	4r	4r	4ryy	4r	4r	4r
4r	4r	4r	8d	4r	4ryy	4r	4ryy	4r	8D	8D	4ryy	4r	4r	4r
.	.	.	8e	.	.	.	.	.	8E	8E	.	.	.	.
=45	=45	=45	=45	=45	=45	=45	=45	=45	=45	=45	=45	=45	=45	=45
4D	4r	4r	4f#	4D	[2.dd	2.dd	4ryy	4r	4F#	4F#	4ryy	4r	4r	4r
4r	4F# 4A	4c 4d	4d	4r	.	.	4dd	4aa	4D	4D	4ff#	4ccc	4aa	4aa
4r	4F# 4A	4c 4d	4d 4cc 4aa	4r	.	.	4dd	4aa	4c'	4c'	4ff#	4ccc	4aa	4aa
=46	=46	=46	=46	=46	=46	=46	=46	=46	=46	=46	=46	=46	=46	=46
4D	4r	4r	4f#	4D	2.dd_	2.dd	4ryy	4r	4F#	4F#	4ryy	4r	4r	4r
4r	4F# 4A	4d 4cc	4d	4r	.	.	4dd	4aa	4D	4D	4ff#	4ccc	4aa	4aa
4r	4F# 4A	4d 4cc	4d 4cc 4aa	4r	.	.	4dd	4aa	4c'	4c'	4ff#	4ccc	4aa	4aa
=47	=47	=47	=47	=47	=47	=47	=47	=47	=47	=47	=47	=47	=47	=47
4D	4r	4r	4f#	4D	4dd]	4dd	4ryy	4r	4F#	4F#	4ryy	4r	4r	4r
4r	4D 4A	4a 4ff#	4d	4D	4dd	4dd	4dd	4aa	4D	4D	4ff#	4ccc	4aa	4aa
4r	4D 4A	4a 4ff#	4d 4cc 4aa	4D	4dd	4dd	4dd	4aa	4c'	4c'	4ff#	4ccc	4aa	4aa
=48	=48	=48	=48	=48	=48	=48	=48	=48	=48	=48	=48	=48	=48	=48
.	.	.	16dQ	.	.	.	.	.	.	.	.	.	.	.
.	.	.	16ddQ	.	.	.	.	.	.	.	.	.	.	.
2D;	2D; 2A;y	2a;y 2ff#;	2ccc;	2DT;y	2dd;y	2dd;	2dd;y	2aa;	2DD;	2DD;	2ff#;y	2ccc;	2aa;	2aa;
4r	4r	8g	8b	4r	4ryy	4r	4ryy	4r	8G	8B	8g	8b	4r	4r
.	.	8a	8cc	.	.	.	.	.	8A	8c	8a	8cc	.	.
=49	=49	=49	=49	=49	=49	=49	=49	=49	=49	=49	=49	=49	=49	=49
2.r	2.r	4b	4dd	2.r	2.r	2.r	2.r	2.r	4B	4d	4b	4dd	2.r	2.r
.	.	4r	4r	.	.	.	.	.	4ryy	4r	4ryy	4r	.	.
.	.	8g	8b	.	.	.	.	.	8G	8B	8g	8b	.	.
.	.	8a	8cc	.	.	.	.	.	8A	8c	8a	8cc	.	.
=50	=50	=50	=50	=50	=50	=50	=50	=50	=50	=50	=50	=50	=50	=50
2.r	2.r	4b	4dd	2.r	2.r	2.r	2.r	2.r	4B	4d	4b	4dd	2.r	2.r
.	.	4r	4r	.	.	.	.	.	4ryy	4r	4ryy	4r	.	.
*	*	*	*	*	*	*	*	*	*clefC4	*clefC4	*	*	*	*
.	.	8g	8b	.	.	.	.	.	8G	8B	8g	8b	.	.
.	.	8a	8cc	.	.	.	.	.	8A	8c	8a	8cc	.	.
=51	=51	=51	=51	=51	=51	=51	=51	=51	=51	=51	=51	=51	=51	=51
2.r	2.r	8b	8dd	2.r	2.r	2.r	2.r	2.r	8B	8d	8b	8dd	2.r	2.r
.	.	8cc	8ee	.	.	.	.	.	8c	8e	8cc	8ee	.	.
.	.	8dd	8ff#	.	.	.	.	.	8d	8f#	8dd	8ff#	.	.
.	.	8ee	8gg	.	.	.	.	.	8e	8g	8ee	8gg	.	.
.	.	8dd	8ff#	.	.	.	.	.	8d	8f#	8dd	8ff#	.	.
.	.	8cc	8ee	.	.	.	.	.	8c	8e	8cc	8ee	.	.
=52	=52	=52	=52	=52	=52	=52	=52	=52	=52	=52	=52	=52	=52	=52
2.r	2.r	4b	4dd	2.r	2.r	2.r	4ryy	4r	4B	4d	4b	4dd	2.r	2.r
.	.	4a	4cc	.	.	.	4ryy	4r	4A	4c	4a	4cc	.	.
.	.	4g	4b	.	.	.	4b	4gg	4G	4B	4g	4b	.	.
=53	=53	=53	=53	=53	=53	=53	=53	=53	=53	=53	=53	=53	=53	=53
.	.	.	8bq	.	.	.	.	8bbq	.	8Bq	.	8bq	.	.
2.r	2.r	4d	4a	2.r	2.r	2.r	4dd	4aa	4D	4A	4d	4a	2.r	2.r
.	.	4B	4g	.	.	.	4b	4gg	4BB	4G	4g	4g	.	.
.	.	4d	4a	.	.	.	4dd	4aa	4D	4A	4d	4a	.	.
=54	=54	=54	=54	=54	=54	=54	=54	=54	=54	=54	=54	=54	=54	=54
4GG	2.B	4B	2.G 2.g	2.r	2.r	2.r	4b	4gg	4BB	4G	4g	4g	2.r	2.gg
4r	.	4d	.	.	.	.	4ryy	4r	4ryy	4r	4ryy	4r	.	.
4r	.	4g	.	.	.	.	4ryy	4r	4ryy	4r	4ryy	4r	.	.
*	*	*	*	*	*	*	*	*	*clefF4	*clefF4	*	*	*	*
=55	=55	=55	=55	=55	=55	=55	=55	=55	=55	=55	=55	=55	=55	=55
.	.	.	8ccq	.	.	.	.	.	.	.	.	.	.	8cccq
4GG	2.d	2.fn	4b	2.r	2.r	2.r	2.r	2.r	2.d	2.d	2.r	2.r	2.r	4bb
4r	.	.	4a	.	.	.	.	.	.	.	.	.	.	4aa
4r	.	.	4b	.	.	.	.	.	.	.	.	.	.	4bb
=56	=56	=56	=56	=56	=56	=56	=56	=56	=56	=56	=56	=56	=56	=56
4GG	2.e	4e	2.e 2.cc	2.r	2.r	2.r	2.r	2.r	2.e	2.e	2.r	2.r	2.r	2.ccc
4r	.	4g	.	.	.	.	.	.	.	.	.	.	.	.
4r	.	4e	.	.	.	.	.	.	.	.	.	.	.	.
=57	=57	=57	=57	=57	=57	=57	=57	=57	=57	=57	=57	=57	=57	=57
.	.	.	8bq	.	.	.	.	.	.	.	.	.	.	8bbq
4GG	2.c	2.c 2.f#X	4a	2.r	2.r	2.r	2.r	2.r	2.c	2.c	2.r	2.r	2.r	4aa
4r	.	.	4g	.	.	.	.	.	.	.	.	.	.	4gg
4r	.	.	4a	.	.	.	.	.	.	.	.	.	.	4aa
=58	=58	=58	=58	=58	=58	=58	=58	=58	=58	=58	=58	=58	=58	=58
4GG	2.B	4B 4g	2.G 2.g	2.r	2.r	2.r	2.r	2.r	2.B	2.B	2.r	2.r	2.r	2.gg
4r	.	4d	.	.	.	.	.	.	.	.	.	.	.	.
4r	.	4B	.	.	.	.	.	.	.	.	.	.	.	.
=59	=59	=59	=59	=59	=59	=59	=59	=59	=59	=59	=59	=59	=59	=59
.	.	.	8ccq	.	.	.	.	.	.	.	.	.	8cccq	8cccq
4GG	2.d	2.fn	4b	4GG	2.g	2.dd	4g	4gg	2.Fn	2.d	2.dd	2.ffn	4bb	4bb
4r	.	.	4a	4GG	.	.	4g	4gg	.	.	.	.	4aa	4aa
4r	.	.	4b	4GG	.	.	4g	4gg	.	.	.	.	4bb	4bb
=60	=60	=60	=60	=60	=60	=60	=60	=60	=60	=60	=60	=60	=60	=60
4GG	4c	4e	2.e 2.cc	4GG	2.cc	2.ee	4g	4gg	2.E	2.c	2.cc	2.ee	2.ccc	2.ccc
4r	4e	4g	.	4r	.	.	4ryy	4r	.	.	.	.	.	.
4r	4c	4e	.	4r	.	.	4ryy	4r	.	.	.	.	.	.
=61	=61	=61	=61	=61	=61	=61	=61	=61	=61	=61	=61	=61	=61	=61
.	.	.	8gq	.	.	.	.	.	.	.	.	8ggq	8bbq	8bbq
4GG	2.A	2.c	4f#	4GG	2.dd	2.dd	2.dd	2.aa	2.F#X	2.A	2.cc	4ff#X	4aa	4aa
4r	.	.	4e	8GG	.	.	.	.	.	.	.	4ee	4gg	4gg
.	.	.	.	8GG	.	.	.	.	.	.	.	.	.	.
4r	.	.	4f#	8GG	.	.	.	.	.	.	.	4ff#	4aa	4aa
.	.	.	.	8GG	.	.	.	.	.	.	.	.	.	.
=62	=62	=62	=62	=62	=62	=62	=62	=62	=62	=62	=62	=62	=62	=62
4GG	4B	4B 4g	4d 4b 4gg	4GG	4g	4dd	4gg	4bb	4G	4G	4b	4gg	4gg	4gg
4ryy	4r	4r	4r	4r	4ryy	4r	4ryy	4r	4ryy	4r	4ryy	4r	4r	4r
=:||:	=:||:	=:||:	=:||:	=:||:	=:||:	=:||:	=:||:	=:||:	=:||:	=:||:	=:||:	=:||:	=:||:	=:||:
*>C	*>C	*>C	*>C	*>C	*>C	*>C	*>C	*>C	*>C	*>C	*>C	*>C	*>C	*>C
4r	4r	4r	8cc#	4r	4r	4r	4r	4r	4ryy	8c#	4r	4r	4r	4r
.	.	.	8dd	.	.	.	.	.	.	8d	.	.	.	.
=63	=63	=63	=63	=63	=63	=63	=63	=63	=63	=63	=63	=63	=63	=63
4r	4r	4r	8ee	2.r	2.r	2.r	2.r	2.r	2.ryy	8e	2.r	2.r	2.r	2.r
.	.	.	8dd	.	.	.	.	.	.	8d	.	.	.	.
4r	4r	4r	8ccn	.	.	.	.	.	.	8cn	.	.	.	.
.	.	.	8b	.	.	.	.	.	.	8B	.	.	.	.
4G	4G	4B	8a	.	.	.	.	.	.	8A	.	.	.	.
.	.	.	8g	.	.	.	.	.	.	8G	.	.	.	.
=64	=64	=64	=64	=64	=64	=64	=64	=64	=64	=64	=64	=64	=64	=64
4A	4A	4c	4f#	2.r	2.r	2.r	2.r	2.r	2.ryy	4F#	2.r	2.r	2.r	2.r
4r	4r	4r	4dd	.	.	.	.	.	.	4d	.	.	.	.
4A	4A	4c	4f#'	.	.	.	.	.	.	4F#'	.	.	.	.
=65	=65	=65	=65	=65	=65	=65	=65	=65	=65	=65	=65	=65	=65	=65
4B	4B	4d	4g	2.r	2.r	2.r	2.r	2.r	2.ryy	4G	2.r	2.r	2.r	2.r
4r	4r	4r	8gg	.	.	.	.	.	.	8g	.	.	.	.
.	.	.	8ff#	.	.	.	.	.	.	8f#	.	.	.	.
4G	4G	4B	8ee	.	.	.	.	.	.	8e	.	.	.	.
.	.	.	8dd	.	.	.	.	.	.	8d	.	.	.	.
=66	=66	=66	=66	=66	=66	=66	=66	=66	=66	=66	=66	=66	=66	=66
4A	4A	4c	4cc	2.r	2.r	2.r	2.r	2.r	2.ryy	4c	2.r	2.r	2.r	2.r
4r	4r	4r	4r	.	.	.	.	.	.	4r	.	.	.	.
4r	4r	4r	8a	.	.	.	.	.	.	8A	.	.	.	.
.	.	.	8b	.	.	.	.	.	.	8B	.	.	.	.
=67	=67	=67	=67	=67	=67	=67	=67	=67	=67	=67	=67	=67	=67	=67
2.r	2.r	2.r	8cc	2.r	2.r	2.r	2.r	2.r	2.ryy	8c	2.r	2.r	2.r	2.r
.	.	.	8b	.	.	.	.	.	.	8B	.	.	.	.
.	.	.	8a	.	.	.	.	.	.	8A	.	.	.	.
.	.	.	8g	.	.	.	.	.	.	8G	.	.	.	.
.	.	.	8f#	.	.	.	.	.	.	8F#	.	.	.	.
.	.	.	8e	.	.	.	.	.	.	8E	.	.	.	.
=68	=68	=68	=68	=68	=68	=68	=68	=68	=68	=68	=68	=68	=68	=68
2.BB	2.F#	2.A 2.d#	4d#	2.r	2.r	2.r	2.r	2.r	2.ryy	4D#	2.r	2.r	2.r	2.r
.	.	.	4b	.	.	.	.	.	.	4B	.	.	.	.
.	.	.	4d#'	.	.	.	.	.	.	4D#'	.	.	.	.
=69	=69	=69	=69	=69	=69	=69	=69	=69	=69	=69	=69	=69	=69	=69
4E	4G	4G 4e	4e	2.r	2.r	2.r	2.r	2.r	2.ryy	4E	2.r	2.r	2.r	2.r
2AA	2E	2c#	8a	.	.	.	.	.	.	8A	.	.	.	.
.	.	.	8g	.	.	.	.	.	.	8G	.	.	.	.
.	.	.	8f#	.	.	.	.	.	.	8F#	.	.	.	.
.	.	.	8e	.	.	.	.	.	.	8E	.	.	.	.
=70	=70	=70	=70	=70	=70	=70	=70	=70	=70	=70	=70	=70	=70	=70
4D	4F#	4dn	4dn	4r	4r	4r	4r	4r	2ryy	4Dn	4r	4r	4r	4r
4r	4r	4r	4r	4r	4r	4r	4r	4r	.	4r	4r	4r	4r	4r
=:||:	=:||:	=:||:	=:||:	=:||:	=:||:	=:||:	=:||:	=:||:	=:||:	=:||:	=:||:	=:||:	=:||:	=:||:
*>D	*>D	*>D	*>D	*>D	*>D	*>D	*>D	*>D	*>D	*>D	*>D	*>D	*>D	*>D
4r	4r	4r	8cc#	4r	4r	4r	4r	4r	4ryy	4r	4r	4r	4r	4r
.	.	.	8dd	.	.	.	.	.	.	.	.	.	.	.
=71	=71	=71	=71	=71	=71	=71	=71	=71	=71	=71	=71	=71	=71	=71
2.r	2.r	4r	8ee	2.r	2.r	2.r	2.r	2.r	2.r	2.r	2.r	2.r	2.r	2.r
.	.	.	8dd	.	.	.	.	.	.	.	.	.	.	.
.	.	4r	8ccn	.	.	.	.	.	.	.	.	.	.	.
.	.	.	8b	.	.	.	.	.	.	.	.	.	.	.
.	.	8G	8a	.	.	.	.	.	.	.	.	.	.	.
.	.	8A	8g	.	.	.	.	.	.	.	.	.	.	.
=72	=72	=72	=72	=72	=72	=72	=72	=72	=72	=72	=72	=72	=72	=72
4r	2.r	8B	4fn	2.r	2.r	2.r	2.r	2.r	2.r	2.r	2.r	2.r	2.r	2.r
.	.	8A	.	.	.	.	.	.	.	.	.	.	.	.
4r	.	8B	4dd	.	.	.	.	.	.	.	.	.	.	.
.	.	8G	.	.	.	.	.	.	.	.	.	.	.	.
4G	.	8A	4f'	.	.	.	.	.	.	.	.	.	.	.
.	.	8B	.	.	.	.	.	.	.	.	.	.	.	.
=73	=73	=73	=73	=73	=73	=73	=73	=73	=73	=73	=73	=73	=73	=73
4C	2.r	8c	4e	2.r	2.r	2.r	2.r	2.r	2.r	2.r	2.r	2.r	2.r	2.r
.	.	8B	.	.	.	.	.	.	.	.	.	.	.	.
4r	.	8c	4ee	.	.	.	.	.	.	.	.	.	.	.
.	.	8A	.	.	.	.	.	.	.	.	.	.	.	.
4A	.	8B	4g'	.	.	.	.	.	.	.	.	.	.	.
.	.	8c#	.	.	.	.	.	.	.	.	.	.	.	.
=74	=74	=74	=74	=74	=74	=74	=74	=74	=74	=74	=74	=74	=74	=74
4D	2.r	8d	4f#X	2.r	2.r	2.r	2.r	2.r	2.r	2.r	2.r	2.r	2.r	2.r
.	.	8c#	.	.	.	.	.	.	.	.	.	.	.	.
4r	.	8d	4ff#	.	.	.	.	.	.	.	.	.	.	.
.	.	8B	.	.	.	.	.	.	.	.	.	.	.	.
4B	.	8c#	4a'	.	.	.	.	.	.	.	.	.	.	.
.	.	8d#	.	.	.	.	.	.	.	.	.	.	.	.
=75	=75	=75	=75	=75	=75	=75	=75	=75	=75	=75	=75	=75	=75	=75
4E	2.r	8e	4g	2.r	2.r	2.r	2.r	2.r	2.r	2.r	2.r	2.r	2.r	2.r
.	.	8d#	.	.	.	.	.	.	.	.	.	.	.	.
4r	.	8e	8gg	.	.	.	.	.	.	.	.	.	.	.
.	.	8f#	8ff#	.	.	.	.	.	.	.	.	.	.	.
4r	.	8g	8ee	.	.	.	.	.	.	.	.	.	.	.
.	.	8f#	8dd	.	.	.	.	.	.	.	.	.	.	.
=76	=76	=76	=76	=76	=76	=76	=76	=76	=76	=76	=76	=76	=76	=76
4A	8g	8e	4cc#	2.r	2.r	2.r	2.r	2.r	2.r	2.r	2.r	2.r	2.r	2.r
.	8f#	8f#	.	.	.	.	.	.	.	.	.	.	.	.
4r	8e	8g	4bb	.	.	.	.	.	.	.	.	.	.	.
.	8d	8f#	.	.	.	.	.	.	.	.	.	.	.	.
4r	8e	8g	4cc#'	.	.	.	.	.	.	.	.	.	.	.
.	8g	8e	.	.	.	.	.	.	.	.	.	.	.	.
=77	=77	=77	=77	=77	=77	=77	=77	=77	=77	=77	=77	=77	=77	=77
4D	4f#	4f#	8cc#	2.r	2.r	2.r	2.r	2.r	2.r	2.r	2.r	2.r	2.r	2.r
.	.	.	8dd	.	.	.	.	.	.	.	.	.	.	.
4r	4r	4r	8ee	.	.	.	.	.	.	.	.	.	.	.
.	.	.	8dd	.	.	.	.	.	.	.	.	.	.	.
4r	4r	4r	8cc#	.	.	.	.	.	.	.	.	.	.	.
.	.	.	8dd	.	.	.	.	.	.	.	.	.	.	.
=78	=78	=78	=78	=78	=78	=78	=78	=78	=78	=78	=78	=78	=78	=78
4AA	8g	8e	4cc#	2.r	2.r	2.r	2.r	2.r	2.r	2.r	2.r	2.r	2.r	2.r
.	8f#	8f#	.	.	.	.	.	.	.	.	.	.	.	.
4r	8e	8g	4bb	.	.	.	.	.	.	.	.	.	.	.
.	8d	8f#	.	.	.	.	.	.	.	.	.	.	.	.
4r	8e	8g	4cc#'	.	.	.	.	.	.	.	.	.	.	.
.	8g	8e	.	.	.	.	.	.	.	.	.	.	.	.
=79	=79	=79	=79	=79	=79	=79	=79	=79	=79	=79	=79	=79	=79	=79
4D	4f#	4f#	8cc#	2.r	2.r	2.r	2.r	2.r	2.r	2.r	2.r	2.r	2.r	2.r
.	.	.	8dd	.	.	.	.	.	.	.	.	.	.	.
4r	4r	4r	8ee	.	.	.	.	.	.	.	.	.	.	.
.	.	.	8dd	.	.	.	.	.	.	.	.	.	.	.
4r	4r	4r	8cc#	.	.	.	.	.	.	.	.	.	.	.
.	.	.	8dd	.	.	.	.	.	.	.	.	.	.	.
=80	=80	=80	=80	=80	=80	=80	=80	=80	=80	=80	=80	=80	=80	=80
2.r	2.r	2.r	8cc#	2.r	2.r	2.r	2.r	2.r	2.ryy	4r	2.r	2.r	2.r	2.r
.	.	.	8dd	.	.	.	.	.	.	.	.	.	.	.
.	.	.	8ee	.	.	.	.	.	.	4r	.	.	.	.
.	.	.	8dd	.	.	.	.	.	.	.	.	.	.	.
.	.	.	8cc#	.	.	.	.	.	.	8c#	.	.	.	.
.	.	.	8dd	.	.	.	.	.	.	8d	.	.	.	.
=81	=81	=81	=81	=81	=81	=81	=81	=81	=81	=81	=81	=81	=81	=81
2.r	2.r	2.r	8cc#	2.r	2.r	2.r	2.r	2.r	2.ryy	8c#	2.r	2.r	2.r	2.r
.	.	.	8dd	.	.	.	.	.	.	8d	.	.	.	.
.	.	.	8ee	.	.	.	.	.	.	8e	.	.	.	.
.	.	.	8dd	.	.	.	.	.	.	8d	.	.	.	.
.	.	.	8cc#z	.	.	.	.	.	.	8c#z	.	.	.	.
.	.	.	8dd	.	.	.	.	.	.	8d	.	.	.	.
=82	=82	=82	=82	=82	=82	=82	=82	=82	=82	=82	=82	=82	=82	=82
4r	4r	4r	8ee	2.r	2.r	2.r	2.r	2.r	2.ryy	8e	2.r	2.r	2.r	2.r
.	.	.	8dd	.	.	.	.	.	.	8d	.	.	.	.
4r	4r	4r	8ccn	.	.	.	.	.	.	8cn	.	.	.	.
.	.	.	8b	.	.	.	.	.	.	8B	.	.	.	.
4G	4G	4B	8a	.	.	.	.	.	.	8A	.	.	.	.
.	.	.	8g	.	.	.	.	.	.	8G	.	.	.	.
=83	=83	=83	=83	=83	=83	=83	=83	=83	=83	=83	=83	=83	=83	=83
4A	4A	4c	4f#	2.r	2.r	2.r	2.r	2.r	2.ryy	4F#	2.r	2.r	2.r	2.r
4r	4r	4r	4dd	.	.	.	.	.	.	4d	.	.	.	.
4A	4A	4c	4f#'	.	.	.	.	.	.	4F#'	.	.	.	.
=84	=84	=84	=84	=84	=84	=84	=84	=84	=84	=84	=84	=84	=84	=84
4B	4B	4d	4g	2.r	2.r	2.r	2.r	2.r	2.ryy	4G	2.r	2.r	2.r	2.r
4r	4r	4r	8gg	.	.	.	.	.	.	8g	.	.	.	.
.	.	.	8ff#	.	.	.	.	.	.	8f#	.	.	.	.
4G	4G	4B	8ee	.	.	.	.	.	.	8e	.	.	.	.
.	.	.	8dd	.	.	.	.	.	.	8d	.	.	.	.
=85	=85	=85	=85	=85	=85	=85	=85	=85	=85	=85	=85	=85	=85	=85
4A	4A	4c	4cc	2.r	2.r	2.r	2.r	2.r	2.ryy	4c	2.r	2.r	2.r	2.r
4r	4r	4r	4r	.	.	.	.	.	.	4r	.	.	.	.
4r	4r	4r	8a	.	.	.	.	.	.	8A	.	.	.	.
.	.	.	8b	.	.	.	.	.	.	8B	.	.	.	.
=86	=86	=86	=86	=86	=86	=86	=86	=86	=86	=86	=86	=86	=86	=86
2.r	2.r	2.r	8cc	2.r	2.r	2.r	2.r	2.r	2.ryy	8c	2.r	2.r	2.r	2.r
.	.	.	8b	.	.	.	.	.	.	8B	.	.	.	.
.	.	.	8a	.	.	.	.	.	.	8A	.	.	.	.
.	.	.	8g	.	.	.	.	.	.	8G	.	.	.	.
.	.	.	8f#	.	.	.	.	.	.	8F#	.	.	.	.
.	.	.	8e	.	.	.	.	.	.	8E	.	.	.	.
=87	=87	=87	=87	=87	=87	=87	=87	=87	=87	=87	=87	=87	=87	=87
2.C	[2.D	2.A 2.f#	4d	2.r	2.r	2.r	2.r	2.r	2.ryy	4D	2.r	2.r	2.r	2.r
.	.	.	8dd	.	.	.	.	.	.	8d	.	.	.	.
.	.	.	8cc	.	.	.	.	.	.	8c	.	.	.	.
.	.	.	8b	.	.	.	.	.	.	8B	.	.	.	.
.	.	.	8a	.	.	.	.	.	.	8A	.	.	.	.
=88	=88	=88	=88	=88	=88	=88	=88	=88	=88	=88	=88	=88	=88	=88
4BB	4D]	4G 4g	4g	2.r	2.r	2.r	2.r	2.r	2.ryy	4G	2.r	2.r	2.r	2.r
4r	4r	4r	8d	.	.	.	.	.	.	8D	.	.	.	.
.	.	.	8c	.	.	.	.	.	.	8C	.	.	.	.
4D	4c	4A 4f#	8B	.	.	.	.	.	.	8BB	.	.	.	.
.	.	.	8A	.	.	.	.	.	.	8AA	.	.	.	.
=89	=89	=89	=89	=89	=89	=89	=89	=89	=89	=89	=89	=89	=89	=89
4GG	4B	4G 4g	4G	4r	4r	4r	4r	4r	2ryy	4GG	4r	4r	4r	4r
4r	4r	4r	4r	4r	4r	4r	4r	4r	.	4r	4r	4r	4r	4r
=:|	=:|	=:|	=:|	=:|	=:|	=:|	=:|	=:|	=:|	=:|	=:|	=:|	=:|	=:|
*-	*-	*-	*-	*-	*-	*-	*-	*-	*-	*-	*-	*-	*-	*-
!!!CDT: 1732/03/31/-1809/05/31/
!!!CNT: Austrian
!!!PPR: Ernst Eulenburg, Ltd.
!!!PPP: London
!!!PDT: 1880///
!!!AGN: symphony
!!!AST: classical, orchestral
!!!YOR: Ernst Praetorius, editor
!!!RDT: 1995 February 15
!!!YER: March 2012
!!!EEV: 2.0
!!!EFL: 7/48
!!!ENC: Frances Bennion
!!!EED: W.B. Hewlett
!!!ONB: Converted from MuseData Fall 2011 by Andreas Kornstaedt
!!!ONB: Manual editing 2012/02/22/ by Craig Stuart Sapp
!!!YEC: Copyright 1996,2012 Center for Computer Assisted Research in the Humanities
!!!YEM: Rights to all derivative electronic formats reserved.
!!!YEM: Refer to licensing agreement for further details.
